; generated by Slic3r 1.2.6 on 2015-03-18 at 23:41:58

; external perimeters extrusion width = 0.50mm
; perimeters extrusion width = 0.72mm
; infill extrusion width = 0.72mm
; solid infill extrusion width = 0.72mm
; top infill extrusion width = 0.72mm

M107 ; disable fan
M104 S230 ; set temperature
G28 ; home all axes
G1 Z5 F5000 ; lift nozzle
M109 S230 ; wait for temperature to be reached
G21 ; set units to millimeters
G90 ; use absolute coordinates
M82 ; use absolute distances for extrusion
G92 E0 ; reset extrusion distance
G1 E-1.00000 F1800.00000 ; retract
G92 E0 ; reset extrusion distance
G1 Z0.350 F7800.000 ; move to next layer (0)

 
        G1 X39.342 Y87.411 F7800
        G1 E1 F1800
        G1 X60.658 Y87.411 E2.97157 F648.625
        G1 X61.589 Y88.342 E3.09333
        G1 X61.589 Y91.658 E3.40007 F648.625
        G1 X60.658 Y92.589 E3.52182
        G1 X39.342 Y92.589 E5.4934
        G1 X38.411 Y91.658 E5.61516
        G1 X38.411 Y88.342 E5.92189
        G1 X39.299 Y87.453 E6.0381
        G1 X39.605 Y88.047 F7800
        G1 X60.395 Y88.047 E7.96097 F648.625
        G1 X60.953 Y88.605 E8.03403 F648.625
        G1 X60.953 Y91.395 E8.29206
        G1 X60.395 Y91.953 E8.36512
        G1 X39.605 Y91.953 E10.28799
        G1 X39.047 Y91.395 E10.36104
        G1 X39.047 Y88.605 E10.61908
        G1 X39.563 Y88.089 E10.68658
        G1 X39.868 Y88.682 F7800
        G1 X60.132 Y88.682 E12.56075 F648.625
        G1 X60.318 Y88.868 E12.5851
        G1 X60.318 Y91.132 E12.79444
        G1 X60.132 Y91.318 E12.81879
        G1 X39.868 Y91.318 E14.69296
        G1 X39.682 Y91.132 E14.71731
        G1 X39.682 Y88.868 E14.92664
        G1 X39.826 Y88.725 E14.94544
        G1 E13.94544 F1800
     
        G92 E0 ; reset extrusion distance
        G1 E1 F1800
        G1 X59.4 Y90.4 F7800
        G1 E1 F1800
        G1 X40.6 Y90.4 E1.93794 F600
        G1 X40.6 Y89.6 E1.97785
        G1 X59.4 Y89.6 E2.91578
        G1 X59.4 Y90.34 E2.9527
        G1 X59.8 Y90.8 F7800
        G1 X40.2 Y90.8 E3.93055 F600
        G1 X40.2 Y89.2 E4.01037
        G1 X59.8 Y89.2 E4.98822
        G1 X59.8 Y90.74 E5.06505
        G1 X59.454 Y90.6 F7800
        G1 X59.2 Y90 F7800
        G1 X40.8 Y90 E5.62254 F600
        G1 E4.62254 F1800
    


G1 X34.486 Y47.710 F7800.000 ; move to first skirt point
G1 E1.00000 F1800.00000 ; unretract
G1 X35.888 Y46.750 E1.15455 F1080.000 ; skirt
G1 X36.610 Y46.378 E1.22839 ; skirt
G1 X37.313 Y46.064 E1.29842 ; skirt
G1 X40.206 Y45.462 E1.56709 ; skirt
G1 X59.794 Y45.462 E3.34819 ; skirt
G1 X62.687 Y46.064 E3.61688 F1080.000 ; skirt
G1 X63.390 Y46.378 E3.68687 ; skirt
G1 X64.112 Y46.750 E3.76072 ; skirt
G1 X65.514 Y47.710 E3.91528 ; skirt
G1 X66.199 Y48.347 E4.00033 ; skirt
G1 X66.995 Y49.257 E4.11030 ; skirt
G1 X67.503 Y49.954 E4.18875 ; skirt
G1 X67.859 Y50.494 E4.24751 ; skirt
G1 X68.402 Y51.416 E4.34481 ; skirt
G1 X68.788 Y52.127 E4.41833 ; skirt
G1 X69.394 Y53.396 E4.54626 ; skirt
G1 X69.856 Y54.542 E4.65862 ; skirt
G1 X70.216 Y55.585 E4.75887 ; skirt
G1 X70.615 Y56.958 E4.88891 ; skirt
G1 X70.988 Y58.630 E5.04469 ; skirt
G1 X71.938 Y63.815 E5.52404 ; skirt
G1 X72.113 Y65.258 E5.65621 ; skirt
G1 X72.120 Y66.407 E5.76066 ; skirt
G1 X72.056 Y67.259 E5.83839 ; skirt
G1 X71.826 Y68.530 E5.95580 ; skirt
G1 X71.605 Y69.300 E6.02867 ; skirt
G1 X71.320 Y70.109 E6.10661 ; skirt
G1 X70.969 Y70.882 E6.18381 ; skirt
G1 X70.617 Y71.543 E6.25191 ; skirt
G1 X70.041 Y72.502 E6.35369 ; skirt
G1 X68.724 Y74.476 E6.56939 ; skirt
G1 X68.154 Y75.284 E6.65935 ; skirt
G1 X67.630 Y75.971 E6.73792 ; skirt
G1 X66.853 Y76.867 E6.84571 ; skirt
G1 X66.336 Y77.402 E6.91341 ; skirt
G1 X65.728 Y77.975 E6.98937 ; skirt
G1 X65.342 Y78.308 E7.03570 ; skirt
G1 X64.541 Y78.939 E7.12846 ; skirt
G1 X63.525 Y79.645 E7.24094 ; skirt
G1 X63.042 Y79.942 E7.29252 ; skirt
G1 X62.133 Y80.449 E7.38715 ; skirt
G1 X61.166 Y80.925 E7.48511 ; skirt
G1 X60.517 Y81.206 E7.54947 ; skirt
G1 X59.204 Y81.701 E7.67702 ; skirt
G1 X58.487 Y81.930 E7.74548 ; skirt
G1 X57.483 Y82.207 E7.84019 ; skirt
G1 X56.107 Y82.522 E7.96856 ; skirt
G1 X54.475 Y82.787 E8.11888 ; skirt
G1 X52.995 Y82.961 E8.25441 ; skirt
G1 X51.937 Y83.030 E8.35083 ; skirt
G1 X50.831 Y83.073 E8.45147 ; skirt
G1 X49.752 Y83.080 E8.54960 ; skirt
G1 X48.737 Y83.060 E8.64187 ; skirt
G1 X46.770 Y82.939 E8.82105 ; skirt
G1 X45.614 Y82.800 E8.92697 ; skirt
G1 X44.230 Y82.584 E9.05434 ; skirt
G1 X43.674 Y82.476 E9.10581 ; skirt
G1 X42.517 Y82.207 E9.21383 ; skirt
G1 X41.513 Y81.930 E9.30853 ; skirt
G1 X40.795 Y81.701 E9.37700 ; skirt
G1 X39.483 Y81.206 E9.50455 ; skirt
G1 X38.834 Y80.925 E9.56890 ; skirt
G1 X37.867 Y80.449 E9.66686 ; skirt
G1 X36.958 Y79.942 E9.76149 ; skirt
G1 X36.475 Y79.645 E9.81308 ; skirt
G1 X35.459 Y78.939 E9.92555 ; skirt
G1 X34.658 Y78.308 E10.01831 ; skirt
G1 X34.272 Y77.975 E10.06465 ; skirt
G1 X33.664 Y77.402 E10.14060 ; skirt
G1 X33.147 Y76.867 E10.20830 ; skirt
G1 X32.370 Y75.971 E10.31610 ; skirt
G1 X31.846 Y75.284 E10.39467 ; skirt
G1 X31.208 Y74.377 E10.49547 ; skirt
G1 X29.959 Y72.502 E10.70033 ; skirt
G1 X29.383 Y71.543 E10.80211 ; skirt
G1 X29.031 Y70.882 E10.87019 ; skirt
G1 X28.680 Y70.108 E10.94742 ; skirt
G1 X28.395 Y69.300 E11.02535 ; skirt
G1 X28.173 Y68.527 E11.09849 ; skirt
G1 X27.944 Y67.265 E11.21516 ; skirt
G1 X27.880 Y66.407 E11.29336 ; skirt
G1 X27.882 Y65.328 E11.39151 ; skirt
G1 X27.995 Y64.274 E11.48790 ; skirt
G1 X28.062 Y63.815 E11.53001 ; skirt
G1 X29.012 Y58.630 E12.00937 ; skirt
G1 X29.312 Y57.253 E12.13751 ; skirt
G1 X29.693 Y55.867 E12.26823 ; skirt
G1 X30.144 Y54.542 E12.39544 ; skirt
G1 X30.760 Y53.048 E12.54242 ; skirt
G1 X31.398 Y51.779 E12.67158 ; skirt
G1 X31.954 Y50.806 E12.77351 ; skirt
G1 X32.315 Y50.221 E12.83595 ; skirt
G1 X33.005 Y49.257 E12.94372 ; skirt
G1 X33.801 Y48.346 E13.05374 ; skirt
G1 X34.429 Y47.759 E13.13195 ; skirt
G1 X34.897 Y48.181 F7800.000 ; move to first skirt point
G1 X36.178 Y47.303 E13.27318 F1080.000 ; skirt
G1 X36.882 Y46.941 E13.34517 ; skirt
G1 X37.563 Y46.637 E13.41293 ; skirt
G1 X40.206 Y46.087 E13.65845 ; skirt
G1 X59.794 Y46.087 E15.43955 ; skirt
G1 X62.437 Y46.637 E15.68508 F1080.000 ; skirt
G1 X63.118 Y46.941 E15.75281 ; skirt
G1 X63.821 Y47.303 E15.82481 ; skirt
G1 X65.103 Y48.181 E15.96605 ; skirt
G1 X65.765 Y48.796 E16.04818 ; skirt
G1 X66.492 Y49.628 E16.14867 ; skirt
G1 X66.994 Y50.317 E16.22621 ; skirt
G1 X67.323 Y50.817 E16.28066 ; skirt
G1 X67.856 Y51.720 E16.37600 ; skirt
G1 X68.236 Y52.421 E16.44845 ; skirt
G1 X68.816 Y53.634 E16.57075 ; skirt
G1 X69.273 Y54.767 E16.68185 ; skirt
G1 X69.624 Y55.785 E16.77977 ; skirt
G1 X70.011 Y57.121 E16.90620 ; skirt
G1 X70.373 Y58.743 E17.05731 ; skirt
G1 X71.323 Y63.926 E17.53647 ; skirt
G1 X71.490 Y65.306 E17.66285 ; skirt
G1 X71.496 Y66.361 E17.75883 ; skirt
G1 X71.434 Y67.203 E17.83558 ; skirt
G1 X71.224 Y68.364 E17.94290 ; skirt
G1 X71.005 Y69.128 E18.01509 ; skirt
G1 X70.744 Y69.866 E18.08631 ; skirt
G1 X70.403 Y70.617 E18.16131 ; skirt
G1 X70.081 Y71.221 E18.22354 ; skirt
G1 X69.333 Y72.451 E18.35444 ; skirt
G1 X67.767 Y74.753 E18.60762 ; skirt
G1 X66.969 Y75.797 E18.72711 ; skirt
G1 X66.179 Y76.671 E18.83421 ; skirt
G1 X65.303 Y77.517 E18.94490 ; skirt
G1 X64.951 Y77.821 E18.98724 ; skirt
G1 X64.159 Y78.444 E19.07884 ; skirt
G1 X63.179 Y79.125 E19.18742 ; skirt
G1 X62.728 Y79.402 E19.23552 ; skirt
G1 X61.852 Y79.891 E19.32674 ; skirt
G1 X60.914 Y80.353 E19.42181 ; skirt
G1 X60.271 Y80.632 E19.48558 ; skirt
G1 X58.996 Y81.112 E19.60948 ; skirt
G1 X58.302 Y81.333 E19.67560 ; skirt
G1 X57.319 Y81.605 E19.76840 ; skirt
G1 X55.988 Y81.908 E19.89251 ; skirt
G1 X54.384 Y82.169 E20.04027 ; skirt
G1 X52.947 Y82.338 E20.17185 ; skirt
G1 X51.909 Y82.406 E20.26644 ; skirt
G1 X50.813 Y82.449 E20.36617 ; skirt
G1 X48.871 Y82.440 E20.54274 ; skirt
G1 X47.053 Y82.338 E20.70832 ; skirt
G1 X45.983 Y82.218 E20.80625 ; skirt
G1 X45.113 Y82.095 E20.88616 ; skirt
G1 X43.812 Y81.866 E21.00628 ; skirt
G1 X42.681 Y81.605 E21.11179 ; skirt
G1 X41.698 Y81.333 E21.20458 ; skirt
G1 X41.004 Y81.112 E21.27072 ; skirt
G1 X39.985 Y80.736 E21.36952 ; skirt
G1 X38.781 Y80.210 E21.48898 ; skirt
G1 X37.849 Y79.731 E21.58426 ; skirt
G1 X37.166 Y79.340 E21.65579 ; skirt
G1 X36.141 Y78.662 E21.76757 ; skirt
G1 X35.049 Y77.821 E21.89292 ; skirt
G1 X34.322 Y77.170 E21.98166 ; skirt
G1 X33.821 Y76.671 E22.04596 ; skirt
G1 X33.198 Y75.990 E22.12984 ; skirt
G1 X32.866 Y75.591 E22.17713 ; skirt
G1 X32.351 Y74.917 E22.25420 ; skirt
G1 X31.788 Y74.117 E22.34315 ; skirt
G1 X30.495 Y72.181 E22.55486 ; skirt
G1 X29.919 Y71.221 E22.65664 ; skirt
G1 X29.598 Y70.617 E22.71885 ; skirt
G1 X29.256 Y69.866 E22.79387 ; skirt
G1 X28.995 Y69.128 E22.86509 ; skirt
G1 X28.776 Y68.362 E22.93753 ; skirt
G1 X28.567 Y67.208 E23.04417 ; skirt
G1 X28.504 Y66.361 E23.12134 ; skirt
G1 X28.505 Y65.375 E23.21103 ; skirt
G1 X28.677 Y63.926 E23.34372 ; skirt
G1 X29.627 Y58.743 E23.82288 ; skirt
G1 X29.922 Y57.390 E23.94873 ; skirt
G1 X30.289 Y56.056 E24.07455 ; skirt
G1 X30.727 Y54.767 E24.19836 ; skirt
G1 X31.325 Y53.314 E24.34120 ; skirt
G1 X31.949 Y52.073 E24.46759 ; skirt
G1 X32.493 Y51.122 E24.56719 ; skirt
G1 X32.835 Y50.568 E24.62640 ; skirt
G1 X33.508 Y49.628 E24.73149 ; skirt
G1 X34.235 Y48.795 E24.83203 ; skirt
G1 X34.840 Y48.230 E24.90732 ; skirt
G1 E23.90732 F1800.00000 ; retract
G92 E0 ; reset extrusion distance
G1 X56.282 Y73.347 F7800.000 ; move to first perimeter point
G1 E1.00000 F1800.00000 ; unretract
G1 X55.184 Y73.661 E1.10392 F540.000 ; perimeter
G1 X54.295 Y73.858 E1.18669 ; perimeter
G1 X53.200 Y74.030 E1.28744 ; perimeter
G1 X52.304 Y74.138 E1.36953 ; perimeter
G1 X50.585 Y74.226 E1.52600 ; perimeter
G1 X49.405 Y74.226 E1.63336 ; perimeter
G1 X47.705 Y74.139 E1.78809 ; perimeter
G1 X46.985 Y74.055 E1.85400 ; perimeter
G1 X45.571 Y73.832 E1.98419 ; perimeter
G1 X44.810 Y73.660 E2.05511 ; perimeter
G1 X43.734 Y73.353 E2.15690 ; perimeter
G1 X42.937 Y73.058 E2.23419 ; perimeter
G1 X42.438 Y72.842 E2.28359 ; perimeter
G1 X41.884 Y72.564 E2.33997 ; perimeter
G1 X41.343 Y72.254 E2.39663 ; perimeter
G1 X40.830 Y71.905 E2.45312 ; perimeter
G1 X40.238 Y71.438 E2.52165 ; perimeter
G1 X39.953 Y71.174 E2.55699 ; perimeter
G1 X39.345 Y70.524 E2.63788 ; perimeter
G1 X38.955 Y70.013 E2.69631 ; perimeter
G1 X38.003 Y68.627 E2.84927 ; perimeter
G1 X37.527 Y67.914 E2.92718 ; perimeter
G1 X37.016 Y67.063 E3.01744 ; perimeter
G1 X36.866 Y66.738 E3.05002 ; perimeter
G1 X36.748 Y66.326 E3.08896 ; perimeter
G1 X36.717 Y65.908 E3.12714 ; perimeter
G1 X36.779 Y65.353 E3.17785 ; perimeter
G1 X37.245 Y63.150 E3.38261 ; perimeter
G1 X37.554 Y61.143 E3.56730 ; perimeter
G1 X37.712 Y60.252 E3.64959 ; perimeter
G1 X37.950 Y59.187 E3.74877 ; perimeter
G1 X38.132 Y58.533 E3.81049 ; perimeter
G1 X38.410 Y57.705 E3.88990 ; perimeter
G1 X38.780 Y56.791 E3.97961 ; perimeter
G1 X39.034 Y56.267 E4.03256 ; perimeter
G1 X39.321 Y55.738 E4.08732 ; perimeter
G1 X39.738 Y55.043 E4.16094 ; perimeter
G1 X40.054 Y54.610 E4.20974 ; perimeter
G1 X40.169 Y54.498 E4.22432 ; perimeter
G1 X40.542 Y54.311 E4.26224 ; perimeter
G1 X43.227 Y54.311 E4.50636 ; perimeter
G1 X59.458 Y54.311 E5.98224 F540.000 ; perimeter
G1 X59.813 Y54.489 E6.01838 ; perimeter
G1 X59.951 Y54.618 E6.03552 ; perimeter
G1 X60.311 Y55.117 E6.09148 ; perimeter
G1 X60.676 Y55.734 E6.15665 ; perimeter
G1 X60.966 Y56.267 E6.21183 ; perimeter
G1 X61.222 Y56.793 E6.26503 ; perimeter
G1 X61.525 Y57.536 E6.33794 ; perimeter
G1 X61.869 Y58.539 E6.43438 ; perimeter
G1 X62.063 Y59.234 E6.50003 ; perimeter
G1 X62.288 Y60.250 E6.59465 ; perimeter
G1 X62.446 Y61.143 E6.67708 ; perimeter
G1 X62.755 Y63.150 E6.86177 ; perimeter
G1 X63.221 Y65.353 E7.06653 ; perimeter
G1 X63.283 Y65.908 E7.11724 ; perimeter
G1 X63.252 Y66.326 E7.15542 ; perimeter
G1 X63.134 Y66.738 E7.19436 ; perimeter
G1 X62.984 Y67.063 E7.22694 ; perimeter
G1 X62.474 Y67.912 E7.31699 ; perimeter
G1 X61.002 Y70.073 E7.55477 ; perimeter
G1 X60.650 Y70.531 E7.60731 ; perimeter
G1 X60.314 Y70.904 E7.65293 ; perimeter
G1 X59.750 Y71.448 E7.72418 ; perimeter
G1 X59.170 Y71.905 E7.79125 ; perimeter
G1 X58.657 Y72.254 E7.84775 ; perimeter
G1 X58.116 Y72.564 E7.90441 ; perimeter
G1 X57.562 Y72.842 E7.96079 ; perimeter
G1 X57.063 Y73.058 E8.01019 ; perimeter
G1 X56.353 Y73.321 E8.07910 ; perimeter
G1 X56.499 Y73.933 F7800.000 ; move to first perimeter point
G1 X55.337 Y74.267 E8.18907 F540.000 ; perimeter
G1 X54.411 Y74.472 E8.27532 ; perimeter
G1 X53.286 Y74.649 E8.37885 ; perimeter
G1 X52.357 Y74.761 E8.46391 ; perimeter
G1 X50.602 Y74.851 E8.62378 ; perimeter
G1 X49.392 Y74.851 E8.73372 ; perimeter
G1 X48.436 Y74.814 E8.82079 ; perimeter
G1 X47.648 Y74.762 E8.89254 ; perimeter
G1 X46.900 Y74.674 E8.96101 ; perimeter
G1 X45.454 Y74.446 E9.09419 ; perimeter
G1 X44.659 Y74.267 E9.16824 ; perimeter
G1 X43.927 Y74.067 E9.23728 ; perimeter
G1 X43.533 Y73.945 E9.27477 ; perimeter
G1 X42.704 Y73.638 E9.35514 ; perimeter
G1 X42.173 Y73.409 E9.40773 ; perimeter
G1 X41.589 Y73.114 E9.46724 ; perimeter
G1 X41.012 Y72.785 E9.52764 ; perimeter
G1 X40.460 Y72.409 E9.58835 ; perimeter
G1 X39.831 Y71.914 E9.66112 ; perimeter
G1 X39.511 Y71.617 E9.70078 ; perimeter
G1 X38.867 Y70.928 E9.78655 ; perimeter
G1 X38.449 Y70.380 E9.84922 ; perimeter
G1 X36.999 Y68.249 E10.08363 ; perimeter
G1 X36.462 Y67.356 E10.17838 ; perimeter
G1 X36.279 Y66.956 E10.21838 ; perimeter
G1 X36.129 Y66.437 E10.26751 ; perimeter
G1 X36.090 Y65.896 E10.31682 ; perimeter
G1 X36.161 Y65.254 E10.37556 ; perimeter
G1 X36.630 Y63.038 E10.58151 ; perimeter
G1 X36.937 Y61.041 E10.76526 ; perimeter
G1 X37.099 Y60.129 E10.84946 ; perimeter
G1 X37.344 Y59.035 E10.95137 ; perimeter
G1 X37.534 Y58.350 E11.01604 ; perimeter
G1 X37.823 Y57.489 E11.09865 ; perimeter
G1 X38.208 Y56.537 E11.19201 ; perimeter
G1 X38.478 Y55.981 E11.24818 ; perimeter
G1 X38.779 Y55.428 E11.30544 ; perimeter
G1 X39.216 Y54.698 E11.38285 ; perimeter
G1 X39.581 Y54.198 E11.43909 ; perimeter
G1 X39.807 Y53.982 E11.46753 ; perimeter
G1 X40.411 Y53.686 E11.52865 ; perimeter
G1 X43.227 Y53.686 E11.78470 ; perimeter
G1 X59.589 Y53.686 E13.27251 F540.000 ; perimeter
G1 X60.178 Y53.974 E13.33208 ; perimeter
G1 X60.422 Y54.203 E13.36253 ; perimeter
G1 X60.835 Y54.774 E13.42657 ; perimeter
G1 X61.220 Y55.425 E13.49540 ; perimeter
G1 X61.522 Y55.981 E13.55290 ; perimeter
G1 X61.793 Y56.538 E13.60922 ; perimeter
G1 X62.110 Y57.316 E13.68558 ; perimeter
G1 X62.467 Y58.353 E13.78534 ; perimeter
G1 X62.669 Y59.083 E13.85421 ; perimeter
G1 X62.900 Y60.128 E13.95153 ; perimeter
G1 X63.063 Y61.041 E14.03581 ; perimeter
G1 X63.370 Y63.038 E14.21957 ; perimeter
G1 X63.839 Y65.254 E14.42552 ; perimeter
G1 X63.910 Y65.896 E14.48426 ; perimeter
G1 X63.871 Y66.437 E14.53357 ; perimeter
G1 X63.721 Y66.956 E14.58270 ; perimeter
G1 X63.538 Y67.356 E14.62269 ; perimeter
G1 X63.002 Y68.248 E14.71733 ; perimeter
G1 X61.505 Y70.443 E14.95894 ; perimeter
G1 X61.130 Y70.931 E15.01489 ; perimeter
G1 X60.764 Y71.339 E15.06475 ; perimeter
G1 X60.161 Y71.920 E15.14085 ; perimeter
G1 X59.540 Y72.409 E15.21273 ; perimeter
G1 X58.988 Y72.785 E15.27344 ; perimeter
G1 X58.411 Y73.114 E15.33384 ; perimeter
G1 X57.827 Y73.409 E15.39336 ; perimeter
G1 X57.296 Y73.638 E15.44594 ; perimeter
G1 X56.570 Y73.907 E15.51638 ; perimeter
G1 X56.716 Y74.519 F7800.000 ; move to first perimeter point
G1 X55.490 Y74.873 E15.63240 F378.000 ; perimeter
G1 X54.527 Y75.087 E15.72214 ; perimeter
G1 X53.372 Y75.268 E15.82844 ; perimeter
G1 X52.411 Y75.384 E15.91647 ; perimeter
G1 X50.618 Y75.476 E16.07974 ; perimeter
G1 X49.380 Y75.476 E16.19226 ; perimeter
G1 X48.403 Y75.438 E16.28122 ; perimeter
G1 X47.591 Y75.384 E16.35516 ; perimeter
G1 X46.815 Y75.293 E16.42619 ; perimeter
G1 X45.336 Y75.060 E16.56237 ; perimeter
G1 X44.508 Y74.873 E16.63954 ; perimeter
G1 X43.752 Y74.667 E16.71079 ; perimeter
G1 X43.332 Y74.537 E16.75079 ; perimeter
G1 X42.471 Y74.219 E16.83426 ; perimeter
G1 X41.908 Y73.975 E16.89002 ; perimeter
G1 X41.293 Y73.665 E16.95267 ; perimeter
G1 X40.680 Y73.315 E17.01682 ; perimeter
G1 X40.090 Y72.913 E17.08174 ; perimeter
