; generated by Slic3r 1.1.7 on 2015-01-17 at 20:28:36

; perimeters extrusion width = 0.50mm
; infill extrusion width = 0.70mm
; solid infill extrusion width = 0.70mm
; top infill extrusion width = 0.70mm

G21 ; set units to millimeters
M107 ; disable fan
M104 S230 ; set temperature
G28 ; home all axes
G1 Z5 F5000 ; lift nozzle
M109 S230 ; wait for temperature to be reached
G90 ; use absolute coordinates
G92 E0 ; reset extrusion distance
M82 ; use absolute distances for extrusion
G1 F1800.000 E-1.00000 ; retract
G92 E0 ; reset extrusion distance
G1 Z0.350 F7800.000 ; move to next layer (0)
G1 X11.370 Y12.376 F7800.000 ; move to first skirt point
G1 E1.00000 F1800.000 ; compensate retraction
G1 X13.007 Y10.872 E1.21257 F1080.000 ; skirt
G1 X15.216 Y9.907 E1.44306 ; skirt
G1 X17.000 Y9.686 E1.61494 ; skirt
G1 X77.000 Y9.686 E7.35176 ; skirt
G1 X79.378 Y10.083 E7.58226 ; skirt
G1 X81.497 Y11.232 E7.81275 F1080.000 ; skirt
G1 X83.128 Y13.007 E8.04324 ; skirt
G1 X84.093 Y15.216 E8.27374 ; skirt
G1 X84.314 Y17.000 E8.44561 ; skirt
G1 X84.314 Y77.000 E14.18243 ; skirt
G1 X83.917 Y79.378 E14.41293 ; skirt
G1 X82.768 Y81.497 E14.64342 ; skirt
G1 X80.993 Y83.128 E14.87391 ; skirt
G1 X78.784 Y84.093 E15.10441 ; skirt
G1 X77.000 Y84.314 E15.27629 ; skirt
G1 X17.000 Y84.314 E21.01311 ; skirt
G1 X14.622 Y83.917 E21.24360 ; skirt
G1 X12.503 Y82.768 E21.47409 ; skirt
G1 X10.872 Y80.993 E21.70459 ; skirt
G1 X9.907 Y78.784 E21.93508 ; skirt
G1 X9.686 Y77.000 E22.10696 ; skirt
G1 X9.686 Y17.000 E27.84378 ; skirt
G1 X10.083 Y14.622 E28.07427 ; skirt
G1 X11.232 Y12.503 E28.30476 ; skirt
G1 X11.315 Y12.427 E28.31551 ; skirt
G1 X11.884 Y12.741 F7800.000 ; move to first skirt point
G1 X13.637 Y11.255 E28.53534 F1080.000 ; skirt
G1 X15.792 Y10.453 E28.75516 ; skirt
G1 X17.000 Y10.343 E28.87111 ; skirt
G1 X77.000 Y10.343 E34.60793 ; skirt
G1 X79.265 Y10.740 E34.82775 ; skirt
G1 X81.259 Y11.884 E35.04757 F1080.000 ; skirt
G1 X82.745 Y13.637 E35.26739 ; skirt
G1 X83.547 Y15.792 E35.48721 ; skirt
G1 X83.657 Y17.000 E35.60316 ; skirt
G1 X83.657 Y77.000 E41.33998 ; skirt
G1 X83.260 Y79.265 E41.55980 ; skirt
G1 X82.116 Y81.259 E41.77963 ; skirt
G1 X80.363 Y82.745 E41.99945 ; skirt
G1 X78.208 Y83.547 E42.21927 ; skirt
G1 X77.000 Y83.657 E42.33522 ; skirt
G1 X17.000 Y83.657 E48.07204 ; skirt
G1 X14.735 Y83.260 E48.29186 ; skirt
G1 X12.741 Y82.116 E48.51168 ; skirt
G1 X11.255 Y80.363 E48.73150 ; skirt
G1 X10.453 Y78.208 E48.95132 ; skirt
G1 X10.343 Y77.000 E49.06727 ; skirt
G1 X10.343 Y17.000 E54.80409 ; skirt
G1 X10.740 Y14.735 E55.02391 ; skirt
G1 X11.846 Y12.806 E55.23656 ; skirt
G1 F1800.000 E54.23656 ; retract
G92 E0 ; reset extrusion distance



        ;////////////////////////////////////////////
        ; Point 22,22
        ; 0. Setup
        G92 E0 ; reset extrusion distance

        ; 1. Move to 1st Point
        G1 X22 Y22

        ; 2. Move to Z0
        G1 Z0.35 ; F7800.000 ; move to next layer

        ; 3. Extrude
        G1 X22 Y22 E20.0000 F2000

        ; 4. Move Up
        G1 X22 Y22 Z40.000 F1023.895 
        G1 F1800.000 ; E19.00000 ; retract
        ;////////////////////////////////////////////
    
        
        ;////////////////////////////////////////////
        ; Point 22,47
        ; 0. Setup
        G92 E0 ; reset extrusion distance

        ; 1. Move to 1st Point
        G1 X22 Y47

        ; 2. Move to Z0
        G1 Z0.35 ; F7800.000 ; move to next layer

        ; 3. Extrude
        G1 X22 Y47 E20.0000 F2000

        ; 4. Move Up
        G1 X22 Y47 Z40.000 F1023.895 
        G1 F1800.000 ; E19.00000 ; retract
        ;////////////////////////////////////////////
    
        
        ;////////////////////////////////////////////
        ; Point 22,72
        ; 0. Setup
        G92 E0 ; reset extrusion distance

        ; 1. Move to 1st Point
        G1 X22 Y72

        ; 2. Move to Z0
        G1 Z0.35 ; F7800.000 ; move to next layer

        ; 3. Extrude
        G1 X22 Y72 E20.0000 F2000

        ; 4. Move Up
        G1 X22 Y72 Z40.000 F1023.895 
        G1 F1800.000 ; E19.00000 ; retract
        ;////////////////////////////////////////////
    
        
        ;////////////////////////////////////////////
        ; Point 47,72
        ; 0. Setup
        G92 E0 ; reset extrusion distance

        ; 1. Move to 1st Point
        G1 X47 Y72

        ; 2. Move to Z0
        G1 Z0.35 ; F7800.000 ; move to next layer

        ; 3. Extrude
        G1 X47 Y72 E20.0000 F2000

        ; 4. Move Up
        G1 X47 Y72 Z40.000 F1023.895 
        G1 F1800.000 ; E19.00000 ; retract
        ;////////////////////////////////////////////
    
        
        ;////////////////////////////////////////////
        ; Point 47,47
        ; 0. Setup
        G92 E0 ; reset extrusion distance

        ; 1. Move to 1st Point
        G1 X47 Y47

        ; 2. Move to Z0
        G1 Z0.35 ; F7800.000 ; move to next layer

        ; 3. Extrude
        G1 X47 Y47 E20.0000 F2000

        ; 4. Move Up
        G1 X47 Y47 Z40.000 F1023.895 
        G1 F1800.000 ; E19.00000 ; retract
        ;////////////////////////////////////////////
    
        
        ;////////////////////////////////////////////
        ; Point 47,22
        ; 0. Setup
        G92 E0 ; reset extrusion distance

        ; 1. Move to 1st Point
        G1 X47 Y22

        ; 2. Move to Z0
        G1 Z0.35 ; F7800.000 ; move to next layer

        ; 3. Extrude
        G1 X47 Y22 E20.0000 F2000

        ; 4. Move Up
        G1 X47 Y22 Z40.000 F1023.895 
        G1 F1800.000 ; E19.00000 ; retract
        ;////////////////////////////////////////////
    
        
        ;////////////////////////////////////////////
        ; Point 72,22
        ; 0. Setup
        G92 E0 ; reset extrusion distance

        ; 1. Move to 1st Point
        G1 X72 Y22

        ; 2. Move to Z0
        G1 Z0.35 ; F7800.000 ; move to next layer

        ; 3. Extrude
        G1 X72 Y22 E20.0000 F2000

        ; 4. Move Up
        G1 X72 Y22 Z40.000 F1023.895 
        G1 F1800.000 ; E19.00000 ; retract
        ;////////////////////////////////////////////
    
        
        ;////////////////////////////////////////////
        ; Point 72,47
        ; 0. Setup
        G92 E0 ; reset extrusion distance

        ; 1. Move to 1st Point
        G1 X72 Y47

        ; 2. Move to Z0
        G1 Z0.35 ; F7800.000 ; move to next layer

        ; 3. Extrude
        G1 X72 Y47 E20.0000 F2000

        ; 4. Move Up
        G1 X72 Y47 Z40.000 F1023.895 
        G1 F1800.000 ; E19.00000 ; retract
        ;////////////////////////////////////////////
    
        
        ;////////////////////////////////////////////
        ; Point 72,72
        ; 0. Setup
        G92 E0 ; reset extrusion distance

        ; 1. Move to 1st Point
        G1 X72 Y72

        ; 2. Move to Z0
        G1 Z0.35 ; F7800.000 ; move to next layer

        ; 3. Extrude
        G1 X72 Y72 E20.0000 F2000

        ; 4. Move Up
        G1 X72 Y72 Z40.000 F1023.895 
        G1 F1800.000 ; E19.00000 ; retract
        ;////////////////////////////////////////////
    
        

G92 E0 ; reset extrusion distance
M107 ; disable fan
M104 S0 ; turn off temperature
G28 X0  ; home X axis
M84     ; disable motors
; filament used = 774.2mm (1.9cm3)

; avoid_crossing_perimeters = 0
; bed_size = 100,100
; bed_temperature = 0
; bridge_acceleration = 0
; bridge_fan_speed = 100
; bridge_flow_ratio = 1
; brim_width = 0
; complete_objects = 0
; cooling = 1
; default_acceleration = 0
; disable_fan_first_layers = 1
; duplicate_distance = 6
; end_gcode = M104 S0 ; turn off temperature\nG28 X0  ; home X axis\nM84     ; disable motors
; external_perimeters_first = 0
; extruder_clearance_height = 20
; extruder_clearance_radius = 20
; extruder_offset = 0x0
; extrusion_axis = E
; extrusion_multiplier = 1
; fan_always_on = 0
; fan_below_layer_time = 60
; filament_diameter = 1.75
; first_layer_acceleration = 0
; first_layer_bed_temperature = 0
; first_layer_extrusion_width = 200%
; first_layer_speed = 30%
; first_layer_temperature = 220
; g0 = 0
; gcode_arcs = 0
; gcode_comments = 1
; gcode_flavor = reprap
; infill_acceleration = 0
; infill_first = 0
; layer_gcode = 
; max_fan_speed = 100
; min_fan_speed = 35
; min_print_speed = 10
; min_skirt_length = 0
; notes = 
; nozzle_diameter = 0.5
; only_retract_when_crossing_perimeters = 1
; ooze_prevention = 0
; output_filename_format = [input_filename_base].gcode
; perimeter_acceleration = 0
; post_process = 
; print_center = 47,47
; resolution = 0
; retract_before_travel = 2
; retract_layer_change = 1
; retract_length = 1
; retract_length_toolchange = 10
; retract_lift = 0
; retract_restart_extra = 0
; retract_restart_extra_toolchange = 0
; retract_speed = 30
; skirt_distance = 6
; skirt_height = 1
; skirts = 2
; slowdown_below_layer_time = 30
; spiral_vase = 0
; standby_temperature_delta = -5
; start_gcode = G28 ; home all axes\nG1 Z5 F5000 ; lift nozzle
; temperature = 220
; threads = 2
; toolchange_gcode = 
; travel_speed = 130
; use_firmware_retraction = 0
; use_relative_e_distances = 0
; vibration_limit = 0
; wipe = 0
; z_offset = 0
; dont_support_bridges = 1
; extrusion_width = 0
; first_layer_height = 0.35
; infill_only_where_needed = 0
; interface_shells = 0
; layer_height = 0.3
; raft_layers = 0
; seam_position = aligned
; support_material = 0
; support_material_angle = 0
; support_material_enforce_layers = 0
; support_material_extruder = 1
; support_material_extrusion_width = 0
; support_material_interface_extruder = 1
; support_material_interface_layers = 3
; support_material_interface_spacing = 0
; support_material_interface_speed = 100%
; support_material_pattern = pillars
; support_material_spacing = 2.5
; support_material_speed = 60
; support_material_threshold = 0
; bottom_solid_layers = 8
; bridge_speed = 60
; external_perimeter_speed = 70%
; extra_perimeters = 1
; fill_angle = 0
; fill_density = 50%
; fill_pattern = rectilinear
; gap_fill_speed = 20
; infill_every_layers = 1
; infill_extruder = 1
; infill_extrusion_width = 0
; infill_speed = 60
; overhangs = 1
; perimeter_extruder = 1
; perimeter_extrusion_width = 0
; perimeter_speed = 30
; perimeters = 3
; small_perimeter_speed = 30
; solid_fill_pattern = rectilinear
; solid_infill_below_area = 70
; solid_infill_every_layers = 0
; solid_infill_extrusion_width = 0
; solid_infill_speed = 60
; thin_walls = 1
; top_infill_extrusion_width = 0
; top_solid_infill_speed = 50
; top_solid_layers = 5

