; generated by Slic3r 1.2.6 on 2015-03-17 at 21:38:07

; external perimeters extrusion width = 0.50mm
; perimeters extrusion width = 0.72mm
; infill extrusion width = 0.72mm
; solid infill extrusion width = 0.72mm
; top infill extrusion width = 0.72mm

M107 ; disable fan
M104 S215 ; set temperature // Blonde = 210, Silver = 215
G28 ; home all axes
G1 Z5 F5000 ; lift nozzle
M109 S215 ; wait for temperature to be reached
G21 ; set units to millimeters
G90 ; use absolute coordinates
M82 ; use absolute distances for extrusion
G92 E0 ; reset extrusion distance
G1 E-1.00000 F1800.00000 ; retract
G92 E0 ; reset extrusion distance
G1 Z0.350 F7800.000 ; move to next layer (0)
G1 X36.364 Y54.429 F7800.000 ; move to first skirt point
G1 E1.00000 F1800.00000 ; unretract
G1 X36.852 Y54.119 E1.05256 F1080.000 ; skirt
G1 X37.867 Y53.551 E1.15832 ; skirt
G1 X38.834 Y53.075 E1.25629 ; skirt
G1 X39.483 Y52.794 E1.32065 ; skirt
G1 X40.395 Y52.442 E1.40948 ; skirt
G1 X41.078 Y52.205 E1.47525 ; skirt
G1 X42.517 Y51.793 E1.61135 ; skirt
G1 X43.674 Y51.524 E1.71937 ; skirt
G1 X44.230 Y51.416 E1.77084 ; skirt
G1 X45.525 Y51.213 E1.89005 ; skirt
G1 X46.575 Y51.082 E1.98627 ; skirt
G1 X47.169 Y51.027 E2.04055 ; skirt
G1 X48.737 Y50.940 E2.18332 ; skirt
G1 X50.249 Y50.920 E2.32084 ; skirt
G1 X51.146 Y50.936 E2.40243 F1080.000 ; skirt
G1 X52.090 Y50.978 E2.48829 ; skirt
G1 X52.994 Y51.039 E2.57074 ; skirt
G1 X54.091 Y51.161 E2.67110 ; skirt
G1 X55.969 Y51.452 E2.84386 ; skirt
G1 X57.483 Y51.793 E2.98500 ; skirt
G1 X58.922 Y52.205 E3.12110 ; skirt
G1 X59.605 Y52.442 E3.18688 ; skirt
G1 X60.517 Y52.794 E3.27571 ; skirt
G1 X61.166 Y53.075 E3.34007 ; skirt
G1 X62.133 Y53.551 E3.43803 ; skirt
G1 X63.042 Y54.058 E3.53266 ; skirt
G1 X63.525 Y54.355 E3.58424 ; skirt
G1 X64.541 Y55.061 E3.69672 ; skirt
G1 X65.342 Y55.692 E3.78948 ; skirt
G1 X65.728 Y56.025 E3.83581 ; skirt
G1 X66.624 Y56.890 E3.94905 ; skirt
G1 X67.266 Y57.592 E4.03556 ; skirt
G1 X67.630 Y58.029 E4.08726 ; skirt
G1 X68.279 Y58.888 E4.18519 ; skirt
G1 X69.327 Y60.415 E4.35359 ; skirt
G1 X70.041 Y61.498 E4.47149 ; skirt
G1 X70.617 Y62.457 E4.57327 ; skirt
G1 X70.969 Y63.118 E4.64136 ; skirt
G1 X71.283 Y63.804 E4.70998 ; skirt
G1 X71.605 Y64.700 E4.79650 ; skirt
G1 X71.826 Y65.471 E4.86948 ; skirt
G1 X72.066 Y66.866 E4.99814 ; skirt
G1 X72.120 Y67.593 E5.06446 ; skirt
G1 X72.118 Y68.673 E5.16262 ; skirt
G1 X72.005 Y69.727 E5.25900 ; skirt
G1 X71.915 Y70.313 E5.31299 ; skirt
G1 X70.988 Y75.370 E5.78046 ; skirt
G1 X70.844 Y76.045 E5.84317 ; skirt
G1 X70.615 Y77.042 E5.93625 ; skirt
G1 X70.382 Y77.880 E6.01526 ; skirt
G1 X69.856 Y79.458 E6.16654 ; skirt
G1 X69.240 Y80.952 E6.31349 ; skirt
G1 X68.602 Y82.221 E6.44268 ; skirt
G1 X68.046 Y83.194 E6.54460 ; skirt
G1 X67.685 Y83.779 E6.60704 ; skirt
G1 X66.995 Y84.743 E6.71483 ; skirt
G1 X66.199 Y85.654 E6.82482 ; skirt
G1 X65.514 Y86.290 E6.90985 ; skirt
G1 X64.112 Y87.250 E7.06441 ; skirt
G1 X63.389 Y87.622 E7.13829 ; skirt
G1 X62.687 Y87.936 E7.20826 ; skirt
G1 X59.794 Y88.538 E7.47695 ; skirt
G1 X40.206 Y88.538 E9.25805 ; skirt
G1 X37.313 Y87.936 E9.52673 ; skirt
G1 X36.610 Y87.622 E9.59674 ; skirt
G1 X35.888 Y87.250 E9.67059 ; skirt
G1 X34.486 Y86.290 E9.82514 ; skirt
G1 X33.801 Y85.654 E9.91016 ; skirt
G1 X33.005 Y84.743 E10.02018 ; skirt
G1 X32.497 Y84.046 E10.09859 ; skirt
G1 X32.141 Y83.506 E10.15737 ; skirt
G1 X31.598 Y82.584 E10.25466 ; skirt
G1 X31.092 Y81.638 E10.35222 ; skirt
G1 X30.666 Y80.744 E10.44227 ; skirt
G1 X30.213 Y79.635 E10.55117 ; skirt
G1 X29.784 Y78.415 E10.66874 ; skirt
G1 X29.618 Y77.880 E10.71977 ; skirt
G1 X29.312 Y76.747 E10.82645 ; skirt
G1 X29.061 Y75.610 E10.93229 ; skirt
G1 X28.062 Y70.185 E11.43393 ; skirt
G1 X27.995 Y69.727 E11.47603 ; skirt
G1 X27.882 Y68.672 E11.57244 ; skirt
G1 X27.880 Y67.593 E11.67058 ; skirt
G1 X27.945 Y66.733 E11.74898 ; skirt
G1 X28.174 Y65.468 E11.86588 ; skirt
G1 X28.395 Y64.700 E11.93858 ; skirt
G1 X28.680 Y63.892 E12.01651 ; skirt
G1 X28.831 Y63.546 E12.05078 ; skirt
G1 X29.031 Y63.118 E12.09375 ; skirt
G1 X29.383 Y62.457 E12.16183 ; skirt
G1 X29.959 Y61.498 E12.26361 ; skirt
G1 X31.208 Y59.623 E12.46847 ; skirt
G1 X31.846 Y58.716 E12.56926 ; skirt
G1 X32.552 Y57.801 E12.67434 ; skirt
G1 X33.147 Y57.133 E12.75567 ; skirt
G1 X33.664 Y56.598 E12.82335 ; skirt
G1 X34.272 Y56.025 E12.89931 ; skirt
G1 X34.658 Y55.692 E12.94566 ; skirt
G1 X35.459 Y55.061 E13.03841 ; skirt
G1 X36.302 Y54.471 E13.13195 ; skirt
G1 X36.710 Y54.949 F7800.000 ; move to first skirt point
G1 X37.166 Y54.660 E13.18103 F1080.000 ; skirt
G1 X38.148 Y54.109 E13.28339 ; skirt
G1 X39.086 Y53.647 E13.37846 ; skirt
G1 X39.729 Y53.368 E13.44223 ; skirt
G1 X40.614 Y53.027 E13.52843 ; skirt
G1 X41.263 Y52.802 E13.59085 ; skirt
G1 X42.681 Y52.395 E13.72503 ; skirt
G1 X43.812 Y52.134 E13.83055 ; skirt
G1 X44.331 Y52.033 E13.87868 ; skirt
G1 X45.616 Y51.831 E13.99691 ; skirt
G1 X46.643 Y51.703 E14.09103 ; skirt
G1 X47.951 Y51.602 E14.21035 ; skirt
G1 X48.765 Y51.564 E14.28440 ; skirt
G1 X50.244 Y51.545 E14.41889 ; skirt
G1 X51.129 Y51.560 E14.49939 F1080.000 ; skirt
G1 X52.049 Y51.602 E14.58313 ; skirt
G1 X52.947 Y51.662 E14.66496 ; skirt
G1 X54.017 Y51.782 E14.76291 ; skirt
G1 X55.850 Y52.065 E14.93156 ; skirt
G1 X57.319 Y52.395 E15.06844 ; skirt
G1 X58.737 Y52.802 E15.20263 ; skirt
G1 X59.386 Y53.027 E15.26505 ; skirt
G1 X60.271 Y53.368 E15.35125 ; skirt
G1 X60.914 Y53.647 E15.41502 ; skirt
G1 X61.852 Y54.109 E15.51009 ; skirt
G1 X62.728 Y54.598 E15.60132 ; skirt
G1 X63.179 Y54.875 E15.64940 ; skirt
G1 X64.159 Y55.556 E15.75799 ; skirt
G1 X64.951 Y56.179 E15.84959 ; skirt
G1 X65.303 Y56.483 E15.89193 ; skirt
G1 X66.179 Y57.329 E16.00263 ; skirt
G1 X66.802 Y58.010 E16.08651 ; skirt
G1 X67.134 Y58.409 E16.13379 ; skirt
G1 X67.767 Y59.247 E16.22922 ; skirt
G1 X68.810 Y60.765 E16.39669 ; skirt
G1 X69.505 Y61.819 E16.51153 ; skirt
G1 X70.081 Y62.779 E16.61330 ; skirt
G1 X70.402 Y63.383 E16.67553 ; skirt
G1 X70.707 Y64.047 E16.74193 ; skirt
G1 X71.005 Y64.872 E16.82174 ; skirt
G1 X71.224 Y65.637 E16.89403 ; skirt
G1 X71.443 Y66.911 E17.01163 ; skirt
G1 X71.496 Y67.639 E17.07796 ; skirt
G1 X71.495 Y68.625 E17.16765 ; skirt
G1 X71.384 Y69.655 E17.26187 ; skirt
G1 X71.300 Y70.203 E17.31223 ; skirt
G1 X70.373 Y75.257 E17.77951 ; skirt
G1 X70.240 Y75.882 E17.83755 ; skirt
G1 X70.011 Y76.879 E17.93062 ; skirt
G1 X69.780 Y77.712 E18.00919 ; skirt
G1 X69.273 Y79.233 E18.15498 ; skirt
G1 X68.675 Y80.685 E18.29781 ; skirt
G1 X68.051 Y81.927 E18.42422 ; skirt
G1 X67.507 Y82.878 E18.52382 ; skirt
G1 X67.165 Y83.433 E18.58302 ; skirt
G1 X66.492 Y84.372 E18.68813 ; skirt
G1 X65.765 Y85.205 E18.78863 ; skirt
G1 X65.103 Y85.819 E18.87075 ; skirt
G1 X63.822 Y86.697 E19.01199 ; skirt
G1 X63.117 Y87.060 E19.08401 ; skirt
G1 X62.437 Y87.363 E19.15173 ; skirt
G1 X59.794 Y87.913 E19.39726 ; skirt
G1 X40.206 Y87.913 E21.17835 ; skirt
G1 X37.563 Y87.363 E21.42388 ; skirt
G1 X36.882 Y87.059 E21.49162 ; skirt
G1 X36.178 Y86.697 E21.56362 ; skirt
G1 X34.897 Y85.819 E21.70485 ; skirt
G1 X34.235 Y85.205 E21.78696 ; skirt
G1 X33.508 Y84.372 E21.88750 ; skirt
G1 X33.006 Y83.683 E21.96500 ; skirt
G1 X32.677 Y83.183 E22.01947 ; skirt
G1 X32.144 Y82.280 E22.11480 ; skirt
G1 X31.654 Y81.364 E22.20922 ; skirt
G1 X31.239 Y80.495 E22.29678 ; skirt
G1 X30.796 Y79.411 E22.40334 ; skirt
G1 X30.635 Y78.977 E22.44538 ; skirt
G1 X30.220 Y77.712 E22.56645 ; skirt
G1 X29.922 Y76.609 E22.67031 ; skirt
G1 X29.671 Y75.477 E22.77578 ; skirt
G1 X28.677 Y70.074 E23.27531 ; skirt
G1 X28.505 Y68.625 E23.40800 ; skirt
G1 X28.504 Y67.639 E23.49767 ; skirt
G1 X28.567 Y66.790 E23.57507 ; skirt
G1 X28.777 Y65.634 E23.68192 ; skirt
G1 X28.995 Y64.872 E23.75393 ; skirt
G1 X29.256 Y64.134 E23.82514 ; skirt
G1 X29.397 Y63.811 E23.85720 ; skirt
G1 X29.598 Y63.383 E23.90017 ; skirt
G1 X29.919 Y62.779 E23.96238 ; skirt
G1 X30.495 Y61.819 E24.06416 ; skirt
G1 X31.726 Y59.973 E24.26596 ; skirt
G1 X32.351 Y59.083 E24.36481 ; skirt
G1 X33.032 Y58.201 E24.46611 ; skirt
G1 X33.611 Y57.551 E24.54530 ; skirt
G1 X34.109 Y57.037 E24.61037 ; skirt
G1 X34.697 Y56.483 E24.68377 ; skirt
G1 X35.049 Y56.179 E24.72613 ; skirt
G1 X35.841 Y55.556 E24.81772 ; skirt
G1 X36.648 Y54.991 E24.90737 ; skirt
G1 E23.90737 F1800.00000 ; retract
G92 E0 ; reset extrusion distance
G1 X59.458 Y79.689 F7800.000 ; move to first perimeter point
G1 E1.00000 F1800.00000 ; unretract
G1 X40.542 Y79.689 E2.72000 F540.000 ; perimeter
G1 X40.169 Y79.502 E2.75791 ; perimeter
G1 X40.057 Y79.393 E2.77213 ; perimeter
G1 X39.692 Y78.888 E2.82884 ; perimeter
G1 X39.203 Y78.050 E2.91704 ; perimeter
G1 X38.775 Y77.199 E3.00360 ; perimeter
G1 X38.410 Y76.295 E3.09231 ; perimeter
G1 X38.132 Y75.467 E3.17169 ; perimeter
G1 X37.937 Y74.766 E3.23787 ; perimeter
G1 X37.712 Y73.750 E3.33248 ; perimeter
G1 X37.554 Y72.857 E3.41492 ; perimeter
G1 X37.245 Y70.850 E3.59961 ; perimeter
G1 X36.779 Y68.647 E3.80437 ; perimeter
G1 X36.717 Y68.092 E3.85508 ; perimeter
G1 X36.747 Y67.688 E3.89195 ; perimeter
G1 X36.897 Y67.189 E3.93931 ; perimeter
G1 X37.013 Y66.941 E3.96423 ; perimeter
G1 X37.526 Y66.088 E4.05476 ; perimeter
G1 X38.532 Y64.590 E4.21885 ; perimeter
G1 X38.998 Y63.927 E4.29253 ; perimeter
G1 X39.353 Y63.466 E4.34540 ; perimeter
G1 X39.686 Y63.096 E4.39069 ; perimeter
G1 X40.250 Y62.552 E4.46196 ; perimeter
G1 X40.831 Y62.094 E4.52920 ; perimeter
G1 X41.241 Y61.814 E4.57435 ; perimeter
G1 X41.892 Y61.433 E4.64294 ; perimeter
G1 X42.438 Y61.158 E4.69854 ; perimeter
G1 X42.937 Y60.942 E4.74795 ; perimeter
G1 X43.718 Y60.653 E4.82367 ; perimeter
G1 X44.820 Y60.338 E4.92791 ; perimeter
G1 X45.574 Y60.168 E4.99818 ; perimeter
G1 X46.803 Y59.970 E5.11138 ; perimeter
G1 X47.700 Y59.862 E5.19356 ; perimeter
G1 X49.108 Y59.782 E5.32181 ; perimeter
G1 X50.432 Y59.774 E5.44223 ; perimeter
G1 X51.536 Y59.810 E5.54262 ; perimeter
G1 X52.292 Y59.861 E5.61152 F540.000 ; perimeter
G1 X53.197 Y59.970 E5.69443 ; perimeter
G1 X54.426 Y60.168 E5.80763 ; perimeter
G1 X55.180 Y60.338 E5.87790 ; perimeter
G1 X56.282 Y60.653 E5.98213 ; perimeter
G1 X57.063 Y60.942 E6.05786 ; perimeter
G1 X57.562 Y61.158 E6.10726 ; perimeter
G1 X58.116 Y61.436 E6.16364 ; perimeter
G1 X58.657 Y61.746 E6.22030 ; perimeter
G1 X59.170 Y62.095 E6.27680 ; perimeter
G1 X59.750 Y62.552 E6.34387 ; perimeter
G1 X60.314 Y63.096 E6.41512 ; perimeter
G1 X60.648 Y63.467 E6.46053 ; perimeter
G1 X61.042 Y63.984 E6.51965 ; perimeter
G1 X62.477 Y66.091 E6.75147 ; perimeter
G1 X62.984 Y66.937 E6.84111 ; perimeter
G1 X63.134 Y67.262 E6.87369 ; perimeter
G1 X63.249 Y67.664 E6.91168 ; perimeter
G1 X63.278 Y68.141 E6.95513 ; perimeter
G1 X63.200 Y68.764 E7.01221 ; perimeter
G1 X62.756 Y70.844 E7.20566 ; perimeter
G1 X62.342 Y73.443 E7.44492 ; perimeter
G1 X62.061 Y74.773 E7.56858 ; perimeter
G1 X61.868 Y75.467 E7.63407 ; perimeter
G1 X61.590 Y76.295 E7.71344 ; perimeter
G1 X61.225 Y77.199 E7.80216 ; perimeter
G1 X60.795 Y78.053 E7.88908 ; perimeter
G1 X60.269 Y78.948 E7.98343 ; perimeter
G1 X59.954 Y79.379 E8.03203 ; perimeter
G1 X59.813 Y79.511 E8.04954 ; perimeter
G1 X59.527 Y79.659 E8.07887 ; perimeter
G1 X59.458 Y80.314 F7800.000 ; move to first perimeter point
G1 X40.411 Y80.314 E9.81080 F540.000 ; perimeter
G1 X39.807 Y80.018 E9.87192 ; perimeter
G1 X39.583 Y79.804 E9.90013 ; perimeter
G1 X39.167 Y79.229 E9.96464 ; perimeter
G1 X38.654 Y78.348 E10.05737 ; perimeter
G1 X38.206 Y77.457 E10.14802 ; perimeter
G1 X37.823 Y76.511 E10.24078 ; perimeter
G1 X37.534 Y75.650 E10.32336 ; perimeter
G1 X37.331 Y74.917 E10.39256 ; perimeter
G1 X37.100 Y73.872 E10.48988 ; perimeter
G1 X36.937 Y72.959 E10.57417 ; perimeter
G1 X36.630 Y70.962 E10.75792 ; perimeter
G1 X36.161 Y68.746 E10.96387 ; perimeter
G1 X36.090 Y68.104 E11.02261 ; perimeter
G1 X36.129 Y67.574 E11.07098 ; perimeter
G1 X36.312 Y66.966 E11.12872 ; perimeter
G1 X36.461 Y66.647 E11.16069 ; perimeter
G1 X36.998 Y65.752 E11.25561 ; perimeter
G1 X38.017 Y64.236 E11.42175 ; perimeter
G1 X38.495 Y63.557 E11.49723 ; perimeter
G1 X38.872 Y63.066 E11.55352 ; perimeter
G1 X39.236 Y62.661 E11.60304 ; perimeter
G1 X39.839 Y62.080 E11.67915 ; perimeter
G1 X40.461 Y61.590 E11.75113 ; perimeter
G1 X40.906 Y61.286 E11.80019 ; perimeter
G1 X41.593 Y60.883 E11.87258 ; perimeter
G1 X42.173 Y60.591 E11.93163 ; perimeter
G1 X42.704 Y60.362 E11.98421 ; perimeter
G1 X43.523 Y60.058 E12.06364 ; perimeter
G1 X44.665 Y59.732 E12.17164 ; perimeter
G1 X45.455 Y59.554 E12.24529 ; perimeter
G1 X46.716 Y59.351 E12.36139 ; perimeter
G1 X47.645 Y59.239 E12.44651 ; perimeter
G1 X49.089 Y59.157 E12.57797 ; perimeter
G1 X50.441 Y59.149 E12.70095 ; perimeter
G1 X51.567 Y59.186 E12.80341 ; perimeter
G1 X52.350 Y59.238 E12.87476 F540.000 ; perimeter
G1 X53.284 Y59.351 E12.96032 ; perimeter
G1 X54.545 Y59.554 E13.07643 ; perimeter
G1 X55.335 Y59.732 E13.15007 ; perimeter
G1 X56.477 Y60.058 E13.25808 ; perimeter
G1 X57.296 Y60.362 E13.33750 ; perimeter
G1 X57.827 Y60.591 E13.39008 ; perimeter
G1 X58.411 Y60.886 E13.44960 ; perimeter
G1 X58.988 Y61.215 E13.51000 ; perimeter
G1 X59.540 Y61.591 E13.57071 ; perimeter
G1 X60.161 Y62.080 E13.64259 ; perimeter
G1 X60.764 Y62.661 E13.71869 ; perimeter
G1 X61.129 Y63.068 E13.76842 ; perimeter
G1 X61.550 Y63.618 E13.83138 ; perimeter
G1 X63.003 Y65.755 E14.06636 ; perimeter
G1 X63.538 Y66.644 E14.16074 ; perimeter
G1 X63.721 Y67.044 E14.20074 ; perimeter
G1 X63.869 Y67.557 E14.24929 ; perimeter
G1 X63.905 Y68.161 E14.30425 ; perimeter
G1 X63.817 Y68.868 E14.36904 ; perimeter
G1 X63.370 Y70.959 E14.56346 ; perimeter
G1 X62.956 Y73.556 E14.80267 ; perimeter
G1 X62.668 Y74.922 E14.92953 ; perimeter
G1 X62.466 Y75.650 E14.99831 ; perimeter
G1 X62.177 Y76.511 E15.08089 ; perimeter
G1 X61.794 Y77.457 E15.17365 ; perimeter
G1 X61.345 Y78.350 E15.26452 ; perimeter
G1 X60.788 Y79.297 E15.36444 ; perimeter
G1 X60.424 Y79.795 E15.42056 ; perimeter
G1 X60.178 Y80.026 E15.45123 ; perimeter
G1 X59.813 Y80.215 E15.48856 ; perimeter
G1 X59.589 Y80.314 E15.51083 ; perimeter
G1 X59.533 Y80.314 E15.51594 ; perimeter
G1 X59.458 Y80.939 F7800.000 ; move to first perimeter point
G1 X40.280 Y80.939 E17.25981 F378.000 ; perimeter
G1 X39.917 Y80.779 E17.29586 ; perimeter
G1 X39.453 Y80.538 E17.34340 ; perimeter
G1 X39.109 Y80.214 E17.38635 ; perimeter
G1 X38.643 Y79.570 E17.45865 ; perimeter
G1 X38.104 Y78.646 E17.55592 ; perimeter
G1 X37.636 Y77.715 E17.65065 ; perimeter
G1 X37.237 Y76.728 E17.74746 ; perimeter
G1 X36.937 Y75.833 E17.83326 ; perimeter
G1 X36.724 Y75.068 E17.90547 ; perimeter
G1 X36.487 Y73.994 E18.00549 ; perimeter
G1 X36.321 Y73.062 E18.09163 ; perimeter
G1 X36.015 Y71.074 E18.27445 ; perimeter
G1 X35.543 Y68.846 E18.48160 ; perimeter
G1 X35.462 Y68.116 E18.54836 ; perimeter
G1 X35.510 Y67.459 E18.60823 ; perimeter
G1 X35.727 Y66.742 E18.67635 ; perimeter
G1 X35.908 Y66.353 E18.71537 ; perimeter
G1 X36.471 Y65.417 E18.81469 ; perimeter
G1 X37.502 Y63.882 E18.98287 ; perimeter
G1 X37.991 Y63.187 E19.06015 ; perimeter
G1 X38.391 Y62.666 E19.11986 ; perimeter
G1 X38.787 Y62.227 E19.17360 ; perimeter
G1 X39.428 Y61.609 E19.25456 ; perimeter
G1 X40.091 Y61.087 E19.33128 ; perimeter
G1 X40.571 Y60.758 E19.38425 ; perimeter
G1 X41.294 Y60.334 E19.46045 ; perimeter
G1 X41.908 Y60.025 E19.52294 ; perimeter
G1 X42.471 Y59.782 E19.57870 ; perimeter
G1 X43.328 Y59.464 E19.66182 ; perimeter
G1 X44.510 Y59.126 E19.77360 ; perimeter
G1 X45.337 Y58.940 E19.85062 ; perimeter
G1 X46.629 Y58.732 E19.96963 ; perimeter
G1 X47.590 Y58.616 E20.05768 ; perimeter
G1 X49.069 Y58.533 E20.19236 ; perimeter
G1 X50.449 Y58.524 E20.31789 ; perimeter
G1 X51.598 Y58.562 E20.42242 ; perimeter
G1 X52.408 Y58.616 E20.49623 F378.000 ; perimeter
G1 X53.371 Y58.732 E20.58443 ; perimeter
G1 X54.663 Y58.940 E20.70344 ; perimeter
G1 X55.490 Y59.126 E20.78046 ; perimeter
G1 X56.672 Y59.464 E20.89224 ; perimeter
G1 X57.529 Y59.781 E20.97536 ; perimeter
G1 X58.092 Y60.025 E21.03112 ; perimeter
G1 X58.707 Y60.335 E21.09378 ; perimeter
G1 X59.320 Y60.685 E21.15792 ; perimeter
G1 X59.910 Y61.087 E21.22284 ; perimeter
G1 X60.572 Y61.609 E21.29952 ; perimeter
